icon-themes/sifr_svg/cmd/lc_basicstop.svg

<svg viewBox="0 0 24 24" xmlns="http://www.w3.org/2000/svg"><path d="m12 1c-6.063288 0-11 4.936712-11 11s4.936712 11 11 11 11-4.936712 11-11-4.936712-11-11-11zm0 2c4.982407 0 9 4.017593 9 9s-4.017593 9-9 9-9-4.017593-9-9 4.017593-9 9-9zm-4 4c-.5522619.0000552-.9999448.4477381-1 1v8c.0000552.552262.4477381.999945 1 1h8c.552262-.000055.999945-.447738 1-1v-8c-.000055-.5522619-.447738-.9999448-1-1z" fill="#555753"/></svg>

<svg xmlns="http://www.w3.org/2000/svg" viewBox="0 0 24 24">
 <path
     style="fill:#555753"
     d="M 12 1 C 5.936712 1 1 5.936712 1 12 C 1 18.063288 5.936712 23 12 23 C 18.063288 23 23 18.063288 23 12 C 23 5.936712 18.063288 1 12 1 z M 12 3 C 16.982407 3 21 7.017593 21 12 C 21 16.982407 16.982407 21 12 21 C 7.017593 21 3 16.982407 3 12 C 3 7.017593 7.017593 3 12 3 z M 8 7 C 7.4477381 7.0000552 7.0000552 7.4477381 7 8 L 7 16 C 7.0000552 16.552262 7.4477381 16.999945 8 17 L 16 17 C 16.552262 16.999945 16.999945 16.552262 17 16 L 17 8 C 16.999945 7.4477381 16.552262 7.0000552 16 7 L 8 7 z "
     />
 </svg>
